svg/u1f34c.svg

<svg viewBox="0 0 128 128" xmlns="http://www.w3.org/2000/svg">
  <path d="M119.22,95.12c-1.14,2.36-5.91,2.21-8.54,1.38c-6.72-2.12-10.9-7.9-10.9-7.9L65.14,73.9l-10.61-5.57 c0,0-2.06-3.5,2.06-6.17s7.01-2.87,7.01-2.87l11.94,7.6c0,0,7.71-6,15.54-6.91c7.48-0.86,16.79,5.22,19.24,16.7 c1.99,9.31,5.14,12.59,6.09,13.8C117.36,91.7,120.2,93.1,119.22,95.12z" fill="#FF8E00"/>
  <path d="M77.72,32.15C74.65,21.99,70.77,10.1,64.91,6.03c-5.19-3.6-10.24-2.95-12.64-1.38 c0,0-4.33,1.77-5.47,6.24c-1.88,7.34,0.59,16.15,2.2,25.25c1.61,9.1,2.45,15.36,3.18,22.67c0.07,0.66,12.16,22.18,12.16,22.18 l9.65,5.17c0,0,7.37-15.94,7.26-18.19C81.15,65.71,79.96,39.57,77.72,32.15z" fill="#FFE4B4"/>
  <path d="M52.55,66.94c-0.13,2.43,5.73,21.8,5.73,21.8l15.72-2.6c0,0,11.15-6.6,11.46-18.57 c0.48-18.05-2.61-26.55-4.85-33.97C77.53,23.46,70.67,10.1,64.86,5.96c-3.41-2.43-7.19-2.79-8.74-2.49c0,0,10.32,8.08,15.54,21.9 s6.45,29.79,6.45,29.79s-3.84,2.83-12.9,4.13c-7,1.01-13.04-0.7-13.04-0.7S52.72,63.86,52.55,66.94z" fill="#FFE265"/>
  <path d="M85.33,83.75l-6.29-13.14l0.34-4.68c0,0,1.34-3.93-7.03,2.42c-3.88,2.94-6.22,8.36-6.22,8.36 s-1.18-2.92-5.32-6.78c-3.68-3.42-8.63-5.08-8.63-5.08s-10.28-2-11.4-1.13c-7.25,5.66-12.55,12.55-12.55,12.55L22.9,96.42 l-8.86,5.43c0,0,2.42,3.54,5.92,2.22c2.73-1.03,6.11-4.12,7.93-8.01c2.5-5.35,7.75-15.47,10.42-18.67 c5.16-6.16,10.22-8.41,13.99-6.62c4.29,2.03,0.86,22.29,0.86,22.29l-27.58,23.21l-0.47,3.16c0,0,4.01,3.85,15.06,3.49 s25.83-4.45,35.18-17.2C83.6,94.48,85.33,83.75,85.33,83.75z" fill="#FFA726"/>
  <path d="M63.58,84.96c0.24,5.55-3.22,13.96-11.22,20.97c-7.99,7.01-16.43,9.33-21.67,9.73 c-3.8,0.29-4.93-1.88-4.93-1.88s7.66-7.05,13.35-12.7c5.4-5.37,11.28-16.65,12.56-21.84c1.28-5.19,0.12-8.68,0.12-8.68 s2.48,0.69,6.13,4.35C61.46,78.46,63.45,81.88,63.58,84.96z" fill="#FFB803"/>
  <path d="M29.45,118.74c-0.83,1.93-3.68,2.01-4.92,0.94c-1.17-1.01-2.31-3.02-1.13-5.27 c0.78-1.48,3.34-1.89,4.78-0.74S30.2,116.99,29.45,118.74z" fill="#875B54"/>
  <path d="M23.76,97.84c-3.28,4.55-6.57,5.24-7.93,5.39c-1.19,0.14-2.49-1.38-2.34-2.78 c0.15-1.4,2.45-3.37,2.73-7.67c0.28-4.3-0.06-20.07,8.69-29.13c6.17-6.38,13.73-4.18,18.61-2.49c5.5,1.9,8.67,3.7,8.67,3.7 s-4.5-0.31-12.26,5.81c-4.51,3.56-7.16,8.45-9.66,14.06C28.47,88.79,26.07,94.64,23.76,97.84z" fill="#FEE4B4"/>
  <path d="M111,109.58c-0.92,1.84-3.17,2.98-5.16,2.89c-4.21-0.18-8.05-2.35-12.3-7.83 C87.53,96.88,82.3,78.26,78.38,73.3c-2.65-3.35-5.95-5.01-5.95-5.01s1.82-1.54,3.64-2.49c1.82-0.95,6.22-0.5,6.22-0.5l18.78,30.18 L111,109.58z" fill="#FEB804"/>
  <path d="M100.39,68.46c4.12,5.89,4.66,11.06,5.28,16.34c0.56,4.77,1.71,14.8,3.44,18.07 c1.74,3.27,3.43,5.4,1.56,7.39s-7.37,1.28-11.32-3.02c-3.18-3.47-4.94-7.25-7.33-12.8c-2.39-5.55-5.91-18.65-10.48-24.57 c-2.92-3.78-5.83-3.89-5.83-3.89s3.85-3.14,11.2-3.22C93.5,62.69,96.96,63.56,100.39,68.46z" fill="#FFE4B4"/>
</svg>

<svg viewBox="0 0 128 128" xmlns="http://www.w3.org/2000/svg">
  <defs/>
  <path d="M119.22,95.12 C118.08,97.48 113.31,97.33 110.68,96.5 C103.96,94.38 99.78,88.6 99.78,88.6 L65.14,73.9 L54.53,68.33 C54.53,68.33 52.47,64.83 56.59,62.16 C60.71,59.49 63.6,59.29 63.6,59.29 L75.54,66.89 C75.54,66.89 83.25,60.89 91.08,59.98 C98.56,59.12 107.87,65.2 110.32,76.68 C112.31,85.99 115.46,89.27 116.41,90.48 C117.36,91.7 120.2,93.1 119.22,95.12 Z" fill="#FF8E00"/>
  <path d="M77.72,32.15 C74.65,21.99 70.77,10.1 64.91,6.03 C59.72,2.43 54.67,3.08 52.27,4.65 C52.27,4.65 47.94,6.42 46.8,10.89 C44.92,18.23 47.39,27.04 49,36.14 C50.61,45.24 51.45,51.5 52.18,58.81 C52.25,59.47 64.34,80.99 64.34,80.99 L73.99,86.16 C73.99,86.16 81.36,70.22 81.25,67.97 C81.15,65.71 79.96,39.57 77.72,32.15 Z" fill="#FFE4B4"/>
  <path d="M52.55,66.94 C52.42,69.37 58.28,88.74 58.28,88.74 L74,86.14 C74,86.14 85.15,79.54 85.46,67.57 C85.94,49.52 82.85,41.02 80.61,33.6 C77.53,23.46 70.67,10.1 64.86,5.96 C61.45,3.53 57.67,3.17 56.12,3.47 C56.12,3.47 66.44,11.55 71.66,25.37 C76.88,39.19 78.11,55.16 78.11,55.16 C78.11,55.16 74.27,57.99 65.21,59.29 C58.21,60.3 52.17,58.59 52.17,58.59 C52.17,58.59 52.72,63.86 52.55,66.94 Z" fill="#FFE265"/>
  <path d="M85.33,83.75 L79.04,70.61 L79.38,65.93 C79.38,65.93 80.72,62 72.35,68.35 C68.47,71.29 66.13,76.71 66.13,76.71 C66.13,76.71 64.95,73.79 60.81,69.93 C57.13,66.51 52.18,64.85 52.18,64.85 C52.18,64.85 41.9,62.85 40.78,63.72 C33.53,69.38 28.23,76.27 28.23,76.27 L22.9,96.42 L14.04,101.85 C14.04,101.85 16.46,105.39 19.96,104.07 C22.69,103.04 26.07,99.95 27.89,96.06 C30.39,90.71 35.64,80.59 38.31,77.39 C43.47,71.23 48.53,68.98 52.3,70.77 C56.59,72.8 53.16,93.06 53.16,93.06 L25.58,116.27 L25.11,119.43 C25.11,119.43 29.12,123.28 40.17,122.92 C51.22,122.56 66,118.47 75.35,105.72 C83.6,94.48 85.33,83.75 85.33,83.75 Z" fill="#FFA726"/>
  <path d="M63.58,84.96 C63.82,90.51 60.36,98.92 52.36,105.93 C44.37,112.94 35.93,115.26 30.69,115.66 C26.89,115.95 25.76,113.78 25.76,113.78 C25.76,113.78 33.42,106.73 39.11,101.08 C44.51,95.71 50.39,84.43 51.67,79.24 C52.95,74.05 51.79,70.56 51.79,70.56 C51.79,70.56 54.27,71.25 57.92,74.91 C61.46,78.46 63.45,81.88 63.58,84.96 Z" fill="#FFB803"/>
  <path d="M29.45,118.74 C28.62,120.67 25.77,120.75 24.53,119.68 C23.36,118.67 22.22,116.66 23.4,114.41 C24.18,112.93 26.74,112.52 28.18,113.67 C29.62,114.82 30.2,116.99 29.45,118.74 Z" fill="#875B54"/>
  <path d="M23.76,97.84 C20.48,102.39 17.19,103.08 15.83,103.23 C14.64,103.37 13.34,101.85 13.49,100.45 C13.64,99.05 15.94,97.08 16.22,92.78 C16.5,88.48 16.16,72.71 24.91,63.65 C31.08,57.27 38.64,59.47 43.52,61.16 C49.02,63.06 52.19,64.86 52.19,64.86 C52.19,64.86 47.69,64.55 39.93,70.67 C35.42,74.23 32.77,79.12 30.27,84.73 C28.47,88.79 26.07,94.64 23.76,97.84 Z" fill="#FEE4B4"/>
  <path d="M111,109.58 C110.08,111.42 107.83,112.56 105.84,112.47 C101.63,112.29 97.79,110.12 93.54,104.64 C87.53,96.88 82.3,78.26 78.38,73.3 C75.73,69.95 72.43,68.29 72.43,68.29 C72.43,68.29 74.25,66.75 76.07,65.8 C77.89,64.85 82.29,65.3 82.29,65.3 L101.07,95.48 L111,109.58 Z" fill="#FEB804"/>
  <path d="M100.39,68.46 C104.51,74.35 105.05,79.52 105.67,84.8 C106.23,89.57 107.38,99.6 109.11,102.87 C110.85,106.14 112.54,108.27 110.67,110.26 C108.8,112.25 103.3,111.54 99.35,107.24 C96.17,103.77 94.41,99.99 92.02,94.44 C89.63,88.89 86.11,75.79 81.54,69.87 C78.62,66.09 75.71,65.98 75.71,65.98 C75.71,65.98 79.56,62.84 86.91,62.76 C93.5,62.69 96.96,63.56 100.39,68.46 Z" fill="#FFE4B4"/>
</svg>
